X:1
T:Title
%%score { 1 | 2 }
L:1/8
M:9/8
K:Db
V:1 treble nm="Grand Piano"
V:2 bass 
V:1
 z3 z3[Q:1/4=105] [FA]3 | [FA]3- [FA][DF][EG] [FA][FB][Fc] | [Fd]3 [FA]3 [FA]3 | %3
 [GB]3- [GB][Ac][Bd] [Ac][Ac][GB] | [FA]6 [DF]3 | [EG]3- [EG][=DF][EG] [CE][_DF][CEG] | %6
 [GB]3 [FA]3 [Fd]3 | c3- cBA =GAB | [CA]6 [GA]3 | [FA]3- [FA][DF][EG] [FA][FB][Fc] | %10
 [Fd]3 [FA]3 [A_c]3 | B3- BBB [=GB][Gc][Gd] | [Gc]6 [GA]3 | [Af]3- [Af][Ge][Fd] [Ge][Fd][FA] | %14
 [Ac]3 B3 B3 | A3- AAA [Gc][GA][Ge] |[M:3/4] [Fd]6 |[M:3/8] [DFA]3 | %18
[M:9/8] [CEA]3- [CEA][CE][DF] [EG][DF][CE] | [DF]3 [FA]3 [Ad]3 | d3- dcB [F=Gd][EGc][DGB] | %21
[M:3/4] [Ge]6 |[M:3/8] [GA]3 |[M:9/8] [Af]3- [Af][Ge][Fd] [Ge][Fd][FA] | [Ac]3 B3 B3 | %25
 A3- AAA [Gc][GA][Ge][Q:1/4=103][Q:1/4=102][Q:1/4=100][Q:1/4=99][Q:1/4=97][Q:1/4=96][Q:1/4=94][Q:1/4=93][Q:1/4=91][Q:1/4=90][Q:1/4=88][Q:1/4=86][Q:1/4=85][Q:1/4=83][Q:1/4=82][Q:1/4=80] | %26
[M:3/4] [Fd]6 |] %27
V:2
 z3 z3 [D,D]3 | [D,D]3- [D,D][D,A,][D,A,] [D,D][D,D][D,D] | [D,A,]3 [D,D]3 [D,D]3 | %3
 [G,D]3- [G,D][G,D][G,D] [G,D][G,D][G,D] | [D,D]6 [D,A,]3 | %5
 [A,,A,]3- [A,,A,][A,,A,][A,,A,] [A,,A,][A,,A,]A,, | [D,D]3 [D,D]3 [D,A,]3 | %7
 [E,A,E]3- [E,A,E][E,=G,D][E,A,C] [E,B,][E,A,C][E,G,D] | [A,,A,]6 [A,C]3 | %9
 [D,D]3- [D,D][D,A,][D,A,] [D,D][D,D][D,D] | [D,A,]3 [D,D]3 [F,D]3 | %11
 [G,DG]3- [G,DG][G,DG][G,DG] [E,E][E,E][E,E] | [A,E]6 [A,C]3 | %13
 [D,D]3- [D,D][D,D][D,D] [D,A,][D,A,][D,D] | [G,D]3[K:treble] [G,DG]3 [=G,D_F]3 | %15
 [A,DF]3- [A,DF][A,DF][A,DF][K:bass] [A,,A,][A,,A,][A,,A,] |[M:3/4] [D,A,]6 |[M:3/8] D,3 | %18
[M:9/8] A,,3- A,,[A,,A,][A,,A,] [A,,A,][A,,A,][A,,A,] | [D,A,]3 [D,D]3 [D,_C]3 | %20
 [G,B,G]3- [G,B,G][G,B,G][G,DG] E,E,E, |[M:3/4] [A,C]6 |[M:3/8] [A,C]3 | %23
[M:9/8] [D,D]3- [D,D][D,D][D,D] [D,A,][D,A,][D,D] | [G,D]3 [G,DG]3 [G,D_F]3 | %25
 [A,DF]3- [A,DF][A,DF][A,DF][K:bass] [A,,A,][A,,A,][A,,A,] |[M:3/4] [D,A,]6 |] %27

